X: 524
T: Dalda Çıkmış Bir Elma
C: (Anonim)
O: Turkey
F: http://compmusic.upf.edu/node/140
N: kurdi--turku--sofyan--dalda_cikmis--
N: makam= kurdi
N: form= turku
N: usul= sofyan = 4/4
M: 4/4
L: 1/16
K: C _B   
Q: 1/4=102
%%MIDI tuningsystem comma53
_2/4BAB2 BAB2 BABc BAG2  | ^3/4F2G2 A2{c}_2/4Bc A4 z4  | \
w:  ARANAĞME  |   | 
_2/4BAB2 BAB2 BABc BAG2  | 
w:  ARANAĞME  | 
^3/4F2G2 A2{c}_2/4Bc A4 z4  | _2/4BAB2 BAB2 BABc BAG2  | \
w:   |   | 
^3/4F2G2 A2{c}_2/4Bc A4 z4  | 
w:   | 
_2/4BAB2 BAB2 BABc BAG2  | ^3/4F2G2 A2{c}_2/4Bc A4 ABcd  | 
w:   |   | 
e4 c2d2 e4 e4  | e3d c2d2 e4 z4  | e3d c2d2 e4 z4  | \
w:  *  Dal da  çık mış   |  bir  *  el *  ma    |  El *  ma lı  yâr   | 
e3d c2d2 e4 gffe  | 
w:  cil *  ve li  yâr    | 
f4 f2f2 f4 f2e2  | e4 e2ed d3/2e/dc c4  | \
w:  *  A ra mız dan   |  geç ti  de  *  bir  *  *  *  yâr    | 
f2f2 f2e2 e2d2 d2c2  | 
w:  Ka ra bi be rim   | 
c3_2/4B B2BA A4 z4  | f2f2 f2e2 e2d2 d2c2  | \
w:  top  *  şe ke *  rim    |  Se nin  ka de rin   | 
c2{d}c_2/4B B2c0BA c4 B2A2  | 
w:  be *  nim  *  te *  cel *  lim    | 
A2G2 ^3/4F2G2 A4 A4  | A2G2 ^3/4F2G2 A4 z4  | \
w:  Da rıl ma ca  yok  yok    |  Ba rış ma ca  çok    | 
A2G2 ^3/4F2G2 A4 A4  | A2G2 ^F2G2 A4 z4  | 
w:  Se ni  se ven  yok  yok    |  Be ni  se ven  çok    | 
B2B2 B2B2 B4 BAG2  | ^F2G2 A2B2 A4 z4  | \
w:  U zak la ra  git me   |  sa na  kü se rim    | 
B2B2 B2B2 B2B2 BAG2  | 
w:  Ya kın la ra  ge lir_ i sen   | 
^F2G2 A2B2 c0 A4 z4  | B2B2 B2B2 B4 BAG2  | \
w:  a lır  gi de *  rim    |  U zak la ra  git me   | 
^F2G2 A2B2 A4 z4  | 
w:  sa na  kü se rim    | 
B2B2 B2B2 B2B2 BAG2  | ^F2G2 A2B2 c0 A4 z4  | \
w:  Ya kın la ra  ge lir_ i sen   |  a lır  gi de *  rim    | 
_2/4BAB2 BAB2 BABc BAG2  | 
w:  ARANAĞME  | 
^3/4F2G2 A2{c}_2/4Bc A4 z4  | _2/4BAB2 BAB2 BABc BAG2  | \
w:   |  ARANAĞME  | 
^3/4F2G2 A2{c}_2/4Bc A4 z4  | 
w:   | 
_2/4BAB2 BAB2 BABc BAG2  | ^3/4F2G2 A2{c}_2/4Bc A4 z4  | \
w:   |   | 
_2/4BAB2 BAB2 BABc BAG2  | 
w:   | 
^3/4F2G2 A2{c}_2/4Bc A4 ABcd  | e4 c2d2 e4 e4  | \
w:   |  *  Dal da  çık mış   | 
e3d c2d2 e4 z4  | 
w:  bir  *  el *  ma    | 
e3d c2d2 e4 z4  | e3d c2d2 e4 gffe  | \
w:  El *  ma lı  yâr   |  cil *  ve li  yâr    | 
f4 f2f2 f4 f2e2  | 
w:  *  A ra mız dan   | 
e4 e2ed d3/2e/dc c4  | f2f2 f2e2 e2d2 d2c2  | \
w:  geç ti  de  *  bir  *  *  *  yâr    |  Ka ra bi be rim   | 
c3_2/4B B2BA A4 z4  | 
w:  top  *  şe ke *  rim    | 
f2f2 f2e2 e2d2 d2c2  | c2{d}c_2/4B B2c0BA c4 B2A2  | \
w:  Se nin  ka de rin   |  be *  nim  *  te *  cel *  lim    | 
A2G2 ^3/4F2G2 A4 A4  | 
w:  Da rıl ma ca  yok  yok    | 
A2G2 ^3/4F2G2 A4 z4  | A2G2 ^3/4F2G2 A4 A4  | \
w:  Ba rış ma ca  çok    |  Se ni  se ven  yok  yok    | 
A2G2 ^F2G2 A4 z4  | B2B2 B2B2 B4 BAG2  | 
w:  Be ni  se ven  çok    |  U zak la ra  git me   | 
^F2G2 A2B2 A4 z4  | B2B2 B2B2 B2B2 BAG2  | \
w:  sa na  kü se rim    |  Ya kın la ra  ge lir_ i sen   | 
^F2G2 A2B2 c0 A4 z4  | 
w:  a lır  gi de *  rim    | 
B2B2 B2B2 B4 BAG2  | ^F2G2 A2B2 A4 z4  | \
w:  U zak la ra  git me   |  sa na  kü se rim    | 
B2B2 B2B2 B2B2 BAG2  | 
w:  Ya kın la ra  ge lir_ i sen   | 
^F2G2 A2B2 c0 A4 z4  | |


